img/reviews/common/review-arrow.svg

<svg width="22" height="23" viewBox="0 0 22 23" fill="none" xmlns="http://www.w3.org/2000/svg">
<path d="M4.15547 21.4802C3.59436 22.0769 2.73481 22.3931 1.9253 22.2064C1.41153 22.076 0.886155 21.8036 0.626146 21.3204C0.225858 20.7103 0.186546 19.9029 0.466211 19.2357C0.655634 18.7731 1.03626 18.431 1.38473 18.0863C5.06953 14.3841 8.7999 10.7293 12.4865 7.02808C13.1209 6.38501 13.774 5.76248 14.4084 5.11941C11.1659 5.11762 7.92248 5.12298 4.67907 5.11673C4.04736 5.12834 3.38796 4.92381 2.95908 4.44239C2.14689 3.5412 2.26483 1.92012 3.29057 1.22614C3.71319 0.910854 4.25555 0.828682 4.77021 0.831362C9.65766 0.834042 14.5442 0.830471 19.4317 0.833151C20.1045 0.817967 20.8228 1.04483 21.2419 1.5968C21.5921 1.99693 21.7146 2.54087 21.7128 3.06068C21.7155 8.00341 21.7137 12.9452 21.7137 17.888C21.7271 18.5105 21.5216 19.1598 21.0382 19.5751C20.1214 20.4263 18.4327 20.262 17.7671 19.1768C17.4061 18.6436 17.4222 17.971 17.4249 17.3539C17.4213 14.2823 17.4338 11.2107 17.4186 8.14006C13.0056 12.5942 8.56133 17.018 4.15547 21.4802Z" fill="#6FABFF"/>
</svg>

<svg width="22" height="23" fill="none" xmlns="http://www.w3.org/2000/svg"><path d="M4.155 21.48c-.56.597-1.42.913-2.23.726-.513-.13-1.039-.402-1.299-.886-.4-.61-.44-1.417-.16-2.084.19-.463.57-.805.919-1.15C5.07 14.384 8.8 10.73 12.486 7.028c.635-.643 1.288-1.266 1.922-1.909-3.242-.001-6.486.004-9.729-.002-.632.011-1.291-.193-1.72-.675-.812-.9-.694-2.522.332-3.216.422-.315.965-.397 1.48-.395 4.887.003 9.773 0 14.66.002.674-.015 1.392.212 1.81.764.351.4.474.944.472 1.464.002 4.942 0 9.884 0 14.827.014.622-.191 1.272-.675 1.687-.917.851-2.605.687-3.27-.398-.362-.533-.346-1.206-.343-1.823-.004-3.072.009-6.143-.006-9.214-4.413 4.454-8.858 8.878-13.264 13.34z" fill="#6FABFF"/></svg>
